X: 2519
T: Ballydesmond, The
R: polka
M: 2/4
K: Adorian
|:EA AB|cd e2|G2 GA|GE ED|
EA AB|cd ea|ge dB|A2 A2:|
|:a2 ab|ag ef|g2 ga|ge ed|
ea ab|ag ef|ge dB|A2 A2:|

